style-guide/assets/wds-icons-tag-small.svg

<svg xmlns="http://www.w3.org/2000/svg" xmlns:xlink="http://www.w3.org/1999/xlink" width="18" height="18" viewBox="0 0 18 18">
  <defs>
    <path id="tag-a" d="M16.00025,7.586 L8.00025,15.586 L2.41425,10 L10.41425,2 L16.00025,2 L16.00025,7.586 Z M17.00025,0 L10.00025,0 C9.73425,0 9.48025,0.106 9.29325,0.293 L0.29325,9.293 C-0.09775,9.684 -0.09775,10.316 0.29325,10.707 L7.29325,17.707 C7.48825,17.902 7.74425,18 8.00025,18 C8.25625,18 8.51225,17.902 8.70725,17.707 L17.70725,8.707 C17.89525,8.52 18.00025,8.266 18.00025,8 L18.00025,1 C18.00025,0.447 17.55325,0 17.00025,0 Z M12.50025,7.0001 C13.33025,7.0001 14.00025,6.3301 14.00025,5.5001 C14.00025,4.6701 13.33025,4.0001 12.50025,4.0001 C11.67025,4.0001 11.00025,4.6701 11.00025,5.5001 C11.00025,6.3301 11.67025,7.0001 12.50025,7.0001"/>
  </defs>
  <use fill-rule="evenodd" xlink:href="#tag-a"/>
</svg>

<svg xmlns="http://www.w3.org/2000/svg" xmlns:xlink="http://www.w3.org/1999/xlink" viewBox="0 0 18 18">
  <defs>
    <path id="tag-a" d="M16 7.586l-8 8L2.414 10l8-8H16v5.586zM17 0h-7a1 1 0 0 0-.707.293l-9 9a.999.999 0 0 0 0 1.414l7 7a.997.997 0 0 0 1.414 0l9-9A.996.996 0 0 0 18 8V1a1 1 0 0 0-1-1zm-4.5 7c.83 0 1.5-.67 1.5-1.5S13.33 4 12.5 4 11 4.67 11 5.5 11.67 7 12.5 7"/>
  </defs>
  <use fill-rule="evenodd" xlink:href="#tag-a"/>
</svg>
